X: 1
T: Feller From Fortune
M: 6/8
L: 1/8
R: jig
K: Gmaj
|: d3-d2 d | G2B d2d | ded B2G | G2c e2e | efg d3|
G2B d2d | ded B2G | g2e d2B | (AB)AG3|
c6 | GGB d2d | ded B2G | GGc e2e |
efg d3 | GGB d2d | ded B2G | gge d2B |1 ABAG3 :|
[2 ABAG3 | d6 | G2B d2d | ded B2G | GGc e2e | (ef)g d3|
ggg f2d | eee d2B | G2A B2G | EEF G3 ||
